src/assets/images/ftb-logo.svg

<svg fill="none" viewBox="0 0 256 158" xmlns="http://www.w3.org/2000/svg"><path d="m25.57 0-25.57 25.868v117.147l8.028 14.569h38.95l8.622-14.569v-36.571h21.408l8.623-14.867v-30.922h7.73v82.36l7.731 14.569h39.247l8.92-15.164v-81.765h3.271v62.439l5.946 13.677 20.813 20.813h68.088l8.623-14.569v-65.115l-6.541-4.46 2.378-4.757v-44.005l-26.165-24.678z" fill="#fff"/><path d="m244.141 74.62 3.008-6.964v-41.059l-23.565-21.973h-196.006l-22.954 22.954v113.759l6.725 12.109h33.342l6.725-12.109v-39.642h23.052l6.725-12.11v-33.45h16.458v85.202l6.725 12.109h33.495l6.725-12.109v-85.202h12.458v65.899l4.937 11.793 19.63 19.619h63.326l6.725-12.109v-61.31l-7.531-5.406z" fill="#322a2a"/><path d="m40.615 94.774 3.88 44.764-3.88 6.987h-25.189l-3.88-6.987 3.88-96.635 16.634-16.633h40.83l3.88 15.947-3.88 6.986h-32.276v23.085h29.777l3.88 15.5-3.88 6.986z" fill="#65adb9"/><path d="m156.509 49.213h-22.703l3.88 90.335-3.88 6.987h-25.342l-3.88-6.987 3.88-90.335h-23.543l-3.88-6.987 3.88-15.946h71.588l3.881 15.946z" fill="#9fc41e"/><path d="m240.871 96.431 3.881 43.119-3.881 6.986h-56.394l-16.632-16.632-3.881-9.254 3.881-94.357h51.478l17.025 15.87 3.88 24.077-3.88 9.003-11.815 9.471 16.338 11.728v-.01zm-29.417-22.474v-24.742h-18.41v24.742zm4.076 49.789v-27.304h-22.475v27.304z" fill="#e65014"/><path d="m11.546 30.446v109.104h32.95v-51.751h29.777v-30.235h-29.778v-15.336h32.275v-30.682h-46.324z" fill="#0787c1"/><path d="m81.03 42.228h23.544v97.322h33.102v-97.322h22.714v-30.682h-79.36z" fill="#798b2f"/><path d="m230.953 73.662 9.275-7.444v-36.612l-19.368-18.06h-56.885v109.093l18.911 18.9h61.876v-55.97l-13.798-9.918zm-34.029 35.336v-19.553h14.726v19.553zm0-49.789v-16.981h10.649v16.981z" fill="#b11917"/><path d="m40.614 83.918v51.751h-25.188v-103.621l16.632-16.633h40.83v22.933h-32.274v23.085h29.778v22.475h-29.778zm115.895-45.561h-22.704v97.311h-25.341v-97.31h-23.543v-22.934h71.588v22.932zm84.362 47.217v50.094h-56.394l-16.633-16.632v-103.611h51.479l17.025 15.87v33.069l-11.815 9.471 16.338 11.728zm-29.418-22.474v-24.743h-18.409v24.743zm4.077 49.789v-27.304h-22.475v27.303h22.475z" fill="#fff"/></svg>

<svg fill="none" xmlns="http://www.w3.org/2000/svg" viewBox="0 0 256 158">
    <path d="M25.57 0 0 25.868v117.147l8.028 14.569h38.95l8.622-14.569v-36.571h21.408l8.623-14.867V60.655h7.73v82.36l7.731 14.569h39.247l8.92-15.164V60.655h3.271v62.439l5.946 13.677 20.813 20.813h68.088L256 143.015V77.9l-6.541-4.46 2.378-4.757V24.678L225.672 0H25.57Z" fill="#fff"/>
    <path d="m244.141 74.62 3.008-6.964V26.597L223.584 4.624H27.578L4.624 27.578v113.759l6.725 12.109h33.342l6.725-12.109v-39.642h23.052l6.725-12.11v-33.45h16.458v85.202l6.725 12.109h33.495l6.725-12.109V56.135h12.458v65.899l4.937 11.793 19.63 19.619h63.326l6.725-12.109v-61.31l-7.531-5.406Z" fill="#322A2A"/>
    <path d="m40.615 94.774 3.88 44.764-3.88 6.987H15.426l-3.88-6.987 3.88-96.635L32.06 26.27h40.83l3.88 15.947-3.88 6.986H40.614v23.085h29.777l3.88 15.5-3.88 6.986H40.615Z" fill="#65ADB9"/>
    <path d="M156.509 49.213h-22.703l3.88 90.335-3.88 6.987h-25.342l-3.88-6.987 3.88-90.335H84.921l-3.88-6.987 3.88-15.946h71.588l3.881 15.946-3.881 6.987Z" fill="#9FC41E"/>
    <path d="m240.871 96.431 3.881 43.119-3.881 6.986h-56.394l-16.632-16.632-3.881-9.254 3.881-94.357h51.478l17.025 15.87 3.88 24.077-3.88 9.003-11.815 9.471 16.338 11.728v-.01Zm-29.417-22.474V49.215h-18.41v24.742h18.41Zm4.076 49.789V96.442h-22.475v27.304h22.475Z" fill="#E65014"/>
    <path d="M11.546 30.446V139.55h32.95V87.799h29.777V57.564H44.495V42.228H76.77V11.546H30.446l-18.9 18.9Z" fill="#0787C1"/>
    <path d="M81.03 42.228h23.544v97.322h33.102V42.228h22.714V11.546H81.03v30.682Z" fill="#798B2F"/>
    <path d="m230.953 73.662 9.275-7.444V29.606l-19.368-18.06h-56.885v109.093l18.911 18.9h61.876v-55.97l-13.798-9.918-.011.011Zm-34.029 35.336V89.445h14.726v19.553h-14.726Zm0-49.789V42.228h10.649v16.981h-10.649Z" fill="#B11917"/>
    <path d="M40.614 83.918v51.751H15.426V32.048l16.632-16.633h40.83v22.933H40.614v23.085h29.778v22.475H40.614v.01ZM156.509 38.357h-22.704v97.311h-25.341v-97.31H84.921V15.424h71.588v22.932ZM240.871 85.574v50.094h-56.394l-16.633-16.632V15.425h51.479l17.025 15.87v33.069l-11.815 9.471 16.338 11.728v.011ZM211.453 63.1V38.357h-18.409V63.1h18.409Zm4.077 49.789V85.585h-22.475v27.303h22.475Z" fill="#fff"/>
</svg>
